!!!COM: Music21
!!!OTL: barndance_Amaryllis-Schottische--The
!!!OMV: barndance_Amaryllis-Schottische--The
**kern
*clefG2
*k[f#]
*G:
*M4/4
=1
12gL
12b
12ddJ
=
4gg
4dd
4b
12gL
12b
12ggJ
=
4ff#
4ee
2cc
=
12ddL
12ee
12ddJ
8.ff#L
16eeJk
4cc
4a
=
12ddL
12ee
12ddJ
8.ggL
16ddJk
4b
12gL
12b
12ddJ
=
4gg
4dd
4b
12bL
12cc
12ddJ
!!linebreak:original
=
12ff#L
12gg
12ff#J
4ee
4cc
4cc#X
=
12ddL
12ee
12ddJ
8.ff#L
16eeJk
8.ddL
16ccJk
12ccL
12b
12aJ
=
4g
4gg
4g
4ryy
=||
*M4/4
12gL
12b
12ddJ
=
4gg
4dd
4b
12gL
12b
12ggJ
=
4ff#
4ee
2cc
!!linebreak:original
=
12ddL
12ee
12ddJ
8.ff#L
16eeJk
4cc
4a
=
12ddL
12ee
12ddJ
8.ggL
16ddJk
4b
12gL
12b
12ddJ
=
4gg
4dd
4b
12bL
12cc
12ddJ
=
12ff#L
12gg
12ff#J
4ee
4cc
4cc#X
=
12ddL
12ee
12ddJ
8.ff#L
16eeJk
8.ddL
16ccJk
12ccL
12b
12aJ
!!linebreak:original
=
4g
4gg
4g
4ryy
=||
8.gL
16g#XJk
2.ryy
=
4a
4dd
8.ddL
16cc#XJk
8.ddL
16ff#Jk
=
4aa
4ff#
8.ff#L
16ee#XJk
8.ff#L
16aaJk
=
4gg
4ee
8.eeL
16dd#XJk
8.eeL
16ggJk
=
4ff#
4dd
8.ddL
16cc#XJk
12ddL
12ccn
12bJ
!!linebreak:original
=
4a
4dd
8.ddL
16cc#XJk
12ddL
12ee
12ff#J
=
4aa
4ff#
8.ff#L
16ee#XJk
12ff#L
12gg
12aaJ
=
4gg
[4ee
8.eeL]
16ggJk
12ggL
12ff#
12eeJ
=
4dd
4cc#X
12bL
12a#X
12bJ
4ryy
=||
8.gL
16g#XJk
2.ryy
!!linebreak:original
=
4a
4dd
8.ddL
16cc#XJk
8.ddL
16ff#Jk
=
4aa
4ff#
8.ff#L
16ee#XJk
8.ff#L
16aaJk
=
4gg
4ee
8.eeL
16dd#XJk
8.eeL
16ggJk
=
4ff#
4dd
8.ddL
16cc#XJk
12ddL
12ccn
12bJ
=
4a
4dd
8.ddL
16cc#XJk
12ddL
12ee
12ff#J
!!linebreak:original
=
4aa
4ff#
8.ff#L
16ee#XJk
12ff#L
12gg
12aaJ
=
4gg
4ee
12eeL
12ff#
12ggJ
8.ff#L
16eeJk
=
4dd
4cc#X
4ccn
4ryy
=||
*-
